X:1
T:Title
%%score [ ( 1 2 ) ( 3 4 ) ]
L:1/8
Q:1/4=120
M:none
K:C
V:1 treble nm=" "
V:2 treble 
V:3 bass nm="Midi_74"
V:4 bass 
V:1
[K:G] d8 | c4 B4 | A8 || B8 | A4 G4"^Peter Fussell\n(1750-1802)" | G4 F4 | G8 |] %7
V:2
[K:G] G8 | E2 F2 G4 | F8 || G8 | E4 B,2 C2 | D4 D4 | D8 |] %7
V:3
[K:G] B,8 | C4 D4 | D8 || D8 | C4 G,4 | A,4 A,4 | B,8 |] %7
V:4
[K:G] B,8 | A,4 G,4 | D,8 || G,8 | C,4 E,4 | D,4 D,4 | G,8 |] %7

